X:133
T:Slip simple chords 2
M:3/4
L:1/8
K:Em
B[G2E,2G,2B,2]A BG | EB GE [F2D,2F,2A,2] | GA FD AF | D[G2E,2G,2B,2]A BG | EB GE [dG,B,D]c |
BA GF E2 | B[G2E,2G,2B,2]A BG | EB GE [F2D,2F,2A,2] | GA FD AF |
D[G2E,2G,2B,2]A BG | EB GE [dG,B,D]c | BA GF2< E2 |B [G2E,2G,2B,2E,2G,2B,2] AB |
GE BG E[F2D,2F,2A,2] |G AF DA | FD [G2E,2G,2B,2] AB | GE BG E[e2E,2G,2B,2] |
f g2 ab | ge [d2D,2F,2A,2] ef2 |g af d[e2E,2G,2B,2] |f g2 ab |
ge [dG,B,D]c BA | GF E2 |


